!!!OTL: Die Rheinbraut.
!!!OTL-incipit: Es freit' ein Herr so reiche,
!!!ARE: Europa, Mitteleuropa, Deutschland (), Sachsen, Salzwedel, Lagendorf
!!!YOR: 2, S. 170
!!    185? aufgezeichnet (1850er Jahre)
!!!SCT: Q0047A
!!!TXL: @@DE
!!!YEM: Copyright 1995, estate of Helmut Schaffrath.
**kern	**text
*ICvox	*
*M6/8	*
*k[f#]	*
*G:	*
{8d	1._Es
=1	=1
4g	freit'
8g	ein
8gL	Herr
8f#J	.
8g	ſo
=2	=2
8b	rei-
8a	-che,
8r	.
4r}	.
{8d	er
=3	=3
4g	freit'
8g	nach
8gL	ſei-
8f#J	.
8g	-nes-
=4	=4
8b	-glei-
8a	-chen,
8r	.
4r}	.
{8g	er
=5	=5
4dd	freit'
8a	wohl
8cc	län-
8b	-ger
8a	als
=6	=6
4g	ſie-
16bL	-ben
16aJ	.
4a}	Jahr,
{8a	bis
=7	=7
4g	daß
8g	die
8cc	jun-
8b	-ge
8a	Braut
=8	=8
8gL	ſei-
8bJ	.
8a	-ne
4g}	war.
==	==
!!!AGN: Ballade, Braut - Werbung, Todesahnung, Tod
!! Eingeklammerte Pausen mit kodiert.
!!!ONB: ESAC (Essen Associative Code) Database: BALLADE
!!!AMT: compound duple
!!!AIN: vox
!!!EED: Helmut Schaffrath
!!!EEV: 1.0
!!@@COMMENT:"b: A 49593. Lagendorf, Kr. Salʒwedel. Pariſiusſche Manuſtripte, 1850er Jahre."
!!@@END:
!!!source: Deutsche Volkslieder mit ihren Melodien. Herausgegeben vom Deutschen Volksliedarchiv. Zweiter Band Balladen. Berlin 1939.
!!!page: 170
!!!ENC: Anna Maria Matuszewska
!!!EEV: 2025/02/17
*-	*-
